material/.icons/material/pump.svg

<svg xmlns="http://www.w3.org/2000/svg" viewBox="0 0 24 24"><path d="M2 21v-6h1.5a9.3 9.3 0 01-.5-3 9 9 0 019-9h10v6h-1.5c.32.94.5 1.95.5 3a9 9 0 01-9 9H2m3-9c0 1.28.34 2.47.94 3.5l3.46-2c-.25-.44-.4-.95-.4-1.5 0-.65.21-1.25.56-1.74L6.3 7.93C5.5 9.08 5 10.5 5 12m7 7c2.59 0 4.85-1.41 6.06-3.5l-3.46-2c-.52.9-1.49 1.5-2.6 1.5h-.29l-.38 3.97.67.03m0-10c1.21 0 2.26.72 2.73 1.76l3.64-1.66A6.994 6.994 0 0012 5v4m0 2c-.55 0-1 .45-1 1s.45 1 1 1 1-.45 1-1-.45-1-1-1z"/></svg>

<?xml version="1.0" encoding="UTF-8"?><!DOCTYPE svg PUBLIC "-//W3C//DTD SVG 1.1//EN" "http://www.w3.org/Graphics/SVG/1.1/DTD/svg11.dtd"><svg xmlns="http://www.w3.org/2000/svg" xmlns:xlink="http://www.w3.org/1999/xlink" version="1.1" id="mdi-pump" width="24" height="24" viewBox="0 0 24 24"><path d="M2 21V15H3.5C3.18 14.06 3 13.05 3 12C3 7.03 7.03 3 12 3H22V9H20.5C20.82 9.94 21 10.95 21 12C21 16.97 16.97 21 12 21H2M5 12C5 13.28 5.34 14.47 5.94 15.5L9.4 13.5C9.15 13.06 9 12.55 9 12C9 11.35 9.21 10.75 9.56 10.26L6.3 7.93C5.5 9.08 5 10.5 5 12M12 19C14.59 19 16.85 17.59 18.06 15.5L14.6 13.5C14.08 14.4 13.11 15 12 15L11.71 15L11.33 18.97L12 19M12 9C13.21 9 14.26 9.72 14.73 10.76L18.37 9.1C17.27 6.68 14.83 5 12 5V9M12 11C11.45 11 11 11.45 11 12C11 12.55 11.45 13 12 13C12.55 13 13 12.55 13 12C13 11.45 12.55 11 12 11Z" /></svg>
